X:1
T:Blumenwiese
C:traditionell
A:Deutschland
%%textfont Helvetica-Narrow 10pt
%%begintext align
B:Pijpersboek, Mart Heijmans, Muziekuitgeverij van Teeseling, Nijmegen, 1980
N:im buch nr 53
N:im buch ganz in C  1. ton g'
%%endtext
F:http://simonwascher.info/
Z:abc transcription Simon Wascher
M:3/4
L:1/8
K:C
g2 gf e2 | f2 fe d2 | c2 c2 e2 | d4 d2 |\
g2 gf e2 | f2 fe d2 | c2 e2 d2 | c6 :|
|:\
d2 de f2 | e2 c2 c2 | d2 f2 e2 | d4 A2 |\
d2 de f2 | e2 c2 c2 | g3 f e2 | d6 :|
%%wordsfont Times-Italic 11pt
W:aus Simon Waschers TradArchiv
